!!!COM: Corelli, Arcangelo
!!!OTL: 
!!!ONM: Opus 6, No. 1
!!!OMV: 2
!!!CDT: 1653/2/17/-1713/1/8/
!!!OCY: Italia
**kern	**kern	**kern	**kern	**kern	**kern	**kern
*clefC	*clefG	*clefG	*clefG	*clefC	*clefG	*clefG
*k[f#c#]	*k[f#c#]	*k[f#c#]	*k[f#c#]	*k[f#c#]	*k[f#c#]	*k[f#c#]
*D:	*D:	*D:	*D:	*D:	*D:	*D:
*M3/4	*M3/4	*M3/4	*M3/4	*M3/4	*M3/4	*M3/4
=1	=1	=1	=1	=1	=1	=1
2.r	2.r	2.r	2.r	4d	4ff#	4aa
.	.	.	.	2D	8dd	8ff#
.	.	.	.	.	8cc#	8ee
.	.	.	.	.	8dd	8ff#
.	.	.	.	.	8ee	8gg
=2	=2	=2	=2	=2	=2	=2
2.r	2.r	2.r	2.r	4A	2cc#	2ee
.	.	.	.	4G	.	.
.	.	.	.	4F#	4dd#	4ff#
=3	=3	=3	=3	=3	=3	=3
2.r	2.r	2.r	2.r	2E	4ee	4gg
.	.	.	.	.	8ee	8gg
.	.	.	.	.	8dd#	8ff#
.	.	.	.	4E	8ee	8gg
.	.	.	.	.	8ff#	8aa
=4	=4	=4	=4	=4	=4	=4
2.r	2.r	2.r	2.r	4B	2dd	2ff#
.	.	.	.	4A	.	.
.	.	.	.	4G	4ee	4gg
=5	=5	=5	=5	=5	=5	=5
2.r	2.r	2.r	2.r	4F#	4ff#	4aa
.	.	.	.	2G	8ee	8gg
.	.	.	.	.	8ff#	8aa
.	.	.	.	.	8dd	8ff#
.	.	.	.	.	8ee	8gg
=6	=6	=6	=6	=6	=6	=6
2.r	2.r	2.r	2.r	2A	4.cc#	4.ee
.	.	.	.	.	8cc#	8ee
.	.	.	.	4D	8dd	8ff#
.	.	.	.	.	8cc#	8ee
=7	=7	=7	=7	=7	=7	=7
2.r	2.r	2.r	2.r	4GG	4dd	8ff#
.	.	.	.	.	.	8gg
.	.	.	.	2AA	4.dd	2ee
.	.	.	.	.	8cc#	.
=8	=8	=8	=8	=8	=8	=8
2.r	2.r	2.r	2.r	2.D	2.dd	2.dd
=9	=9	=9	=9	=9	=9	=9
4d	4a	4ff#	4aa	4d	4ff#	4aa
2D	2a	8dd	8ff#	2D	8dd	8ff#
.	.	8cc#	8ee	.	8cc#	8ee
.	.	8dd	8ff#	.	8dd	8ff#
.	.	8ee	8gg	.	8ee	8gg
=10	=10	=10	=10	=10	=10	=10
4A	2.a	2cc#	2ee	4A	2cc#	2ee
4G	.	.	.	4G	.	.
4F#	.	4dd#	4ff#	4F#	4dd#	4ff#
=11	=11	=11	=11	=11	=11	=11
2E	4b	4ee	4gg	2E	4ee	4gg
.	2b	8ee	8gg	.	8ee	8gg
.	.	8dd#	8ff#	.	8dd#	8ff#
4E	.	8ee	8gg	4E	8ee	8gg
.	.	8ff#	8aa	.	8ff#	8aa
=12	=12	=12	=12	=12	=12	=12
4B	2.b	2dd	2ff#	4B	2dd	2ff#
4A	.	.	.	4A	.	.
4G	.	4ee	4gg	4G	4ee	4gg
=13	=13	=13	=13	=13	=13	=13
4F#	4a	4ff#	4aa	4F#	4ff#	4aa
2G	4b	8ee	8gg	2G	8ee	8gg
.	.	8ff#	8aa	.	8ff#	8aa
.	4dd	8dd	8ff#	.	8dd	8ff#
.	.	8ee	8gg	.	8ee	8gg
=14	=14	=14	=14	=14	=14	=14
2A	4.a	4.cc#	4.ee	2A	4.cc#	4.ee
.	8g	8cc#	8ee	.	8cc#	8ee
4D	4f#	8dd	8ff#	4D	8dd	8ff#
.	.	8cc#	8ee	.	8cc#	8ee
=15	=15	=15	=15	=15	=15	=15
4GG	4b	4dd	8ff#	4GG	4dd	8ff#
.	.	.	8gg	.	.	8gg
2AA	4.e	4.dd	2ee	2AA	4.dd	2ee
.	8a	8cc#	.	.	8cc#	.
=16	=16	=16	=16	=16	=16	=16
2.D	2.f#	2.dd	2.dd	2.D	2.dd	2.dd
=17	=17	=17	=17	=17	=17	=17
2.r	2.r	2.r	2.r	2D#	2r	4ff#
.	.	.	.	.	.	4b
.	.	.	.	4D#	4ff#	4aa
=18	=18	=18	=18	=18	=18	=18
2.r	2.r	2.r	2.r	4E	4b	8aa
.	.	.	.	.	.	8ff#
.	.	.	.	2EE	2ee	2gg#
=19	=19	=19	=19	=19	=19	=19
2.r	2.r	2.r	2.r	2E#	2r	4gg#
.	.	.	.	.	.	4cc#
.	.	.	.	4E#	4gg#	4bb
=20	=20	=20	=20	=20	=20	=20
2.r	2.r	2.r	2.r	4F#	4cc#	8bb
.	.	.	.	.	.	8gg#
.	.	.	.	2FF#	2ff#	2aa#
=21	=21	=21	=21	=21	=21	=21
2D	4b	2r	4ff#	2D	2r	4ff#
.	4f#	.	4dd	.	.	4dd
4D	4d	4ff#	4b	4D	4ff#	4b
=22	=22	=22	=22	=22	=22	=22
2E	4B	4ff#	4gg	2E	4ff#	4gg
.	4.g	4b	4.ee	.	4b	4.ee
4E	.	4ee	.	4E	4ee	.
.	8g	.	8ee	.	.	8ee
=23	=23	=23	=23	=23	=23	=23
4.F#	2c#	4.ee	4.aa#	4.F#	4.ee	4.aa#
8E	.	8cc#	8ff#	8E	8cc#	8ff#
4D	4d	8ff#	8bb	4D	8ff#	8bb
.	.	8dd	8ff#	.	8dd	8ff#
=24	=24	=24	=24	=24	=24	=24
4E	8g	8cc#	8ee	4E	8cc#	8ee
.	8b	8b	8dd	.	8b	8dd
4F#	4.f#	4.b	2cc#	4F#	4.b	2cc#
4FF#	.	.	.	4FF#	.	.
.	8f#	8a#	.	.	8a#	.
=25	=25	=25	=25	=25	=25	=25
4.B	2f#	4.b	8b	4.B	4.b	8b
.	.	.	8cc#	.	.	8cc#
.	.	.	4.dd	.	.	4.dd
8A	.	8cc#	.	8A	8cc#	.
8G#	4b	8b	.	8G#	8b	.
8F#	.	8a	8dd	8F#	8a	8dd
=26	=26	=26	=26	=26	=26	=26
4E#	4b	4g#	4cc#	4E#	4g#	4cc#
8r	4r	8r	8r	8r	8r	8r
8C#	.	8e#	8b	8C#	8e#	8b
4F#	4cc#	4f#	8a	4F#	4f#	8a
.	.	.	8g#	.	.	8g#
=27	=27	=27	=27	=27	=27	=27
4BB	4dd	4f#	8a	4BB	4f#	8a
.	.	.	8b	.	.	8b
4C#	4.cc#	4.f#	2g#	4C#	4.f#	2g#
4CC#	.	.	.	4CC#	.	.
.	8c#	8e#	.	.	8e#	.
=28	=28	=28	=28	=28	=28	=28
2.FF#	2.c#	2.f#	2.f#	2.FF#	2.f#	2.f#
=29	=29	=29	=29	=29	=29	=29
2.r	2.r	2.r	2.r	4d	4ff#	4aa
.	.	.	.	2D	8dd	8ff#
.	.	.	.	.	8cc#	8ee
.	.	.	.	.	8dd	8ff#
.	.	.	.	.	8ee	8gg
=30	=30	=30	=30	=30	=30	=30
2.r	2.r	2.r	2.r	4A	2cc#	2ee
.	.	.	.	4G	.	.
.	.	.	.	4F#	4dd#	4ff#
=31	=31	=31	=31	=31	=31	=31
2.r	2.r	2.r	2.r	2E	4ee	4gg
.	.	.	.	.	8ee	8gg
.	.	.	.	.	8dd#	8ff#
.	.	.	.	4E	8ee	8gg
.	.	.	.	.	8ff#	8aa
=32	=32	=32	=32	=32	=32	=32
2.r	2.r	2.r	2.r	4B	2dd	2ff#
.	.	.	.	4A	.	.
.	.	.	.	4G	4ee	4gg
=33	=33	=33	=33	=33	=33	=33
2.r	2.r	2.r	2.r	4F#	4ff#	4aa
.	.	.	.	2G	8ee	8gg
.	.	.	.	.	8ff#	8aa
.	.	.	.	.	8dd	8ff#
.	.	.	.	.	8ee	8gg
=34	=34	=34	=34	=34	=34	=34
2.r	2.r	2.r	2.r	2A	4.cc#	4.ee
.	.	.	.	.	8cc#	8ee
.	.	.	.	4D	8dd	8ff#
.	.	.	.	.	8cc#	8ee
=35	=35	=35	=35	=35	=35	=35
2.r	2.r	2.r	2.r	4GG	4dd	8ff#
.	.	.	.	.	.	8gg
.	.	.	.	2AA	4.dd	2ee
.	.	.	.	.	8cc#	.
=36	=36	=36	=36	=36	=36	=36
2.r	2.r	2.r	2.r	2.D	2.dd	2.dd
=37	=37	=37	=37	=37	=37	=37
2.r	2.r	2.r	2.r	4d	4ff#	4aa
.	.	.	.	2G	8ee	8gg
.	.	.	.	.	8ff#	8aa
.	.	.	.	.	8dd	8ff#
.	.	.	.	.	8ee	8gg
=38	=38	=38	=38	=38	=38	=38
2.r	2.r	2.r	2.r	2A	4.cc#	4.ee
.	.	.	.	.	8cc#	8ee
.	.	.	.	4D	8dd	8ff#
.	.	.	.	.	8cc#	8ee
=39	=39	=39	=39	=39	=39	=39
2.r	2.r	2.r	2.r	4GG	4dd	8ff#
.	.	.	.	.	.	8gg
.	.	.	.	2AA	4.dd	2ee
.	.	.	.	.	8cc#	.
==	==	==	==	==	==	==
*-	*-	*-	*-	*-	*-	*-
!!!RWG: This file only contains pitch and duration data.
!!!RWG: Transposing instruments are not transposed.
!!!RWG: Durations of rests and tied notes may be interpreted.
!!!RWG: Key is interpreted using the Humdrum key tool.
!!!SCA: 
!!!YOR: Chrysander Edition
!!!AGN: concerto grosso
!!!AFT: stage1
!!!ENC: F. Bennion
!!!END: 1997/04/15
!!!AST: baroque
!!!YEC: Copyright 1994, Center for Computer Assisted Research in the Humanities
!!!YEM: Rights to all derivative electronic formats reserved.
!!!YEM: Refer to licensing agreement for further details.
!!!YEN: United States of America
!!!EED: W.B. Hewlett
!!!KEY: 1077014715
!!!EMD: Converted from MuseData to Humdrum Aug 2, 1999, by Bret Aarden using muse2kern.
!!!VTS: 1075003583
